src/assets/fonts/remixicon/remixicon.symbol.svg

<svg xmlns="http://www.w3.org/2000/svg" xmlns:xlink="http://www.w3.org/1999/xlink" width="0" height="0" style="display:none;"><symbol viewBox="0 0 24 24" id="eye-line"><path d="M12.0003 3C17.3924 3 21.8784 6.87976 22.8189 12C21.8784 17.1202 17.3924 21 12.0003 21C6.60812 21 2.12215 17.1202 1.18164 12C2.12215 6.87976 6.60812 3 12.0003 3ZM12.0003 19C16.2359 19 19.8603 16.052 20.7777 12C19.8603 7.94803 16.2359 5 12.0003 5C7.7646 5 4.14022 7.94803 3.22278 12C4.14022 16.052 7.7646 19 12.0003 19ZM12.0003 16.5C9.51498 16.5 7.50026 14.4853 7.50026 12C7.50026 9.51472 9.51498 7.5 12.0003 7.5C14.4855 7.5 16.5003 9.51472 16.5003 12C16.5003 14.4853 14.4855 16.5 12.0003 16.5ZM12.0003 14.5C13.381 14.5 14.5003 13.3807 14.5003 12C14.5003 10.6193 13.381 9.5 12.0003 9.5C10.6196 9.5 9.50026 10.6193 9.50026 12C9.50026 13.3807 10.6196 14.5 12.0003 14.5Z"></path></symbol><symbol viewBox="0 0 24 24" id="eye-off-line"><path d="M17.8827 19.2968C16.1814 20.3755 14.1638 21.0002 12.0003 21.0002C6.60812 21.0002 2.12215 17.1204 1.18164 12.0002C1.61832 9.62282 2.81932 7.5129 4.52047 5.93457L1.39366 2.80777L2.80788 1.39355L22.6069 21.1925L21.1927 22.6068L17.8827 19.2968ZM5.9356 7.3497C4.60673 8.56015 3.6378 10.1672 3.22278 12.0002C4.14022 16.0521 7.7646 19.0002 12.0003 19.0002C13.5997 19.0002 15.112 18.5798 16.4243 17.8384L14.396 15.8101C13.7023 16.2472 12.8808 16.5002 12.0003 16.5002C9.51498 16.5002 7.50026 14.4854 7.50026 12.0002C7.50026 11.1196 7.75317 10.2981 8.19031 9.60442L5.9356 7.3497ZM12.9139 14.328L9.67246 11.0866C9.5613 11.3696 9.50026 11.6777 9.50026 12.0002C9.50026 13.3809 10.6196 14.5002 12.0003 14.5002C12.3227 14.5002 12.6309 14.4391 12.9139 14.328ZM20.8068 16.5925L19.376 15.1617C20.0319 14.2268 20.5154 13.1586 20.7777 12.0002C19.8603 7.94818 16.2359 5.00016 12.0003 5.00016C11.1544 5.00016 10.3329 5.11773 9.55249 5.33818L7.97446 3.76015C9.22127 3.26959 10.5793 3.00016 12.0003 3.00016C17.3924 3.00016 21.8784 6.87992 22.8189 12.0002C22.5067 13.6998 21.8038 15.2628 20.8068 16.5925ZM11.7229 7.50857C11.8146 7.50299 11.9071 7.50016 12.0003 7.50016C14.4855 7.50016 16.5003 9.51488 16.5003 12.0002C16.5003 12.0933 16.4974 12.1858 16.4919 12.2775L11.7229 7.50857Z"></path></symbol><symbol viewBox="0 0 24 24" id="lock-line"><path d="M19 10H20C20.5523 10 21 10.4477 21 11V21C21 21.5523 20.5523 22 20 22H4C3.44772 22 3 21.5523 3 21V11C3 10.4477 3.44772 10 4 10H5V9C5 5.13401 8.13401 2 12 2C15.866 2 19 5.13401 19 9V10ZM5 12V20H19V12H5ZM11 14H13V18H11V14ZM17 10V9C17 6.23858 14.7614 4 12 4C9.23858 4 7 6.23858 7 9V10H17Z"></path></symbol><symbol viewBox="0 0 24 24" id="mail-line"><path d="M3 3H21C21.5523 3 22 3.44772 22 4V20C22 20.5523 21.5523 21 21 21H3C2.44772 21 2 20.5523 2 20V4C2 3.44772 2.44772 3 3 3ZM20 7.23792L12.0718 14.338L4 7.21594V19H20V7.23792ZM4.51146 5L12.0619 11.662L19.501 5H4.51146Z"></path></symbol><symbol viewBox="0 0 24 24" id="user-3-line"><path d="M20 22H18V20C18 18.3431 16.6569 17 15 17H9C7.34315 17 6 18.3431 6 20V22H4V20C4 17.2386 6.23858 15 9 15H15C17.7614 15 20 17.2386 20 20V22ZM12 13C8.68629 13 6 10.3137 6 7C6 3.68629 8.68629 1 12 1C15.3137 1 18 3.68629 18 7C18 10.3137 15.3137 13 12 13ZM12 11C14.2091 11 16 9.20914 16 7C16 4.79086 14.2091 3 12 3C9.79086 3 8 4.79086 8 7C8 9.20914 9.79086 11 12 11Z"></path></symbol><symbol viewBox="0 0 24 24" id="copyright-line"><path d="M16.2877 9.42773C15.413 7.97351 13.8195 7 12 7 9.23999 7 7 9.23999 7 12 7 14.76 9.23999 17 12 17 13.8195 17 15.413 16.0265 16.2877 14.5723L14.5729 13.5442C14.0483 14.4166 13.0927 15 12 15 10.3425 15 9 13.6575 9 12 9 10.3425 10.3425 9 12 9 13.093 9 14.0491 9.58386 14.5735 10.4568L16.2877 9.42773ZM22 12C22 6.47998 17.52 2 12 2 6.47998 2 2 6.47998 2 12 2 17.52 6.47998 22 12 22 17.52 22 22 17.52 22 12ZM4 12C4 7.57996 7.57996 4 12 4 16.42 4 20 7.57996 20 12 20 16.42 16.42 20 12 20 7.57996 20 4 16.42 4 12Z"></path></symbol><symbol viewBox="0 0 24 24" id="logout-box-r-line"><path d="M5 22C4.44772 22 4 21.5523 4 21V3C4 2.44772 4.44772 2 5 2H19C19.5523 2 20 2.44772 20 3V6H18V4H6V20H18V18H20V21C20 21.5523 19.5523 22 19 22H5ZM18 16V13H11V11H18V8L23 12L18 16Z"></path></symbol><symbol viewBox="0 0 24 24" id="account-circle-fill"><path d="M12 2C17.52 2 22 6.48 22 12C22 17.52 17.52 22 12 22C6.48 22 2 17.52 2 12C2 6.48 6.48 2 12 2ZM6.02332 15.4163C7.49083 17.6069 9.69511 19 12.1597 19C14.6243 19 16.8286 17.6069 18.2961 15.4163C16.6885 13.9172 14.5312 13 12.1597 13C9.78821 13 7.63095 13.9172 6.02332 15.4163ZM12 11C13.6569 11 15 9.65685 15 8C15 6.34315 13.6569 5 12 5C10.3431 5 9 6.34315 9 8C9 9.65685 10.3431 11 12 11Z"></path></symbol><symbol viewBox="0 0 24 24" id="shield-check-line"><path d="M12 1L20.2169 2.82598C20.6745 2.92766 21 3.33347 21 3.80217V13.7889C21 15.795 19.9974 17.6684 18.3282 18.7812L12 23L5.6718 18.7812C4.00261 17.6684 3 15.795 3 13.7889V3.80217C3 3.33347 3.32553 2.92766 3.78307 2.82598L12 1ZM12 3.04879L5 4.60434V13.7889C5 15.1263 5.6684 16.3752 6.7812 17.1171L12 20.5963L17.2188 17.1171C18.3316 16.3752 19 15.1263 19 13.7889V4.60434L12 3.04879ZM16.4524 8.22183L17.8666 9.63604L11.5026 16L7.25999 11.7574L8.67421 10.3431L11.5019 13.1709L16.4524 8.22183Z"></path></symbol><symbol viewBox="0 0 24 24" id="stethoscope-line"><path d="M8 3V5H6V9C6 11.2091 7.79086 13 10 13C12.2091 13 14 11.2091 14 9V5H12V3H15C15.5523 3 16 3.44772 16 4V9C16 11.9727 13.8381 14.4405 11.0008 14.9169L11 16.5C11 18.433 12.567 20 14.5 20C15.9973 20 17.275 19.0598 17.7749 17.7375C16.7283 17.27 16 16.2201 16 15C16 13.3431 17.3431 12 19 12C20.6569 12 22 13.3431 22 15C22 16.3711 21.0802 17.5274 19.824 17.8854C19.2102 20.252 17.0592 22 14.5 22C11.4624 22 9 19.5376 9 16.5L9.00019 14.9171C6.16238 14.4411 4 11.9731 4 9V4C4 3.44772 4.44772 3 5 3H8ZM19 14C18.4477 14 18 14.4477 18 15C18 15.5523 18.4477 16 19 16C19.5523 16 20 15.5523 20 15C20 14.4477 19.5523 14 19 14Z"></path></symbol><symbol viewBox="0 0 24 24" id="arrow-left-right-line"><path d="M16.0503 12.0498L21 16.9996L16.0503 21.9493L14.636 20.5351L17.172 17.9988L4 17.9996V15.9996L17.172 15.9988L14.636 13.464L16.0503 12.0498ZM7.94975 2.0498L9.36396 3.46402L6.828 5.9988L20 5.99955V7.99955L6.828 7.9988L9.36396 10.5351L7.94975 11.9493L3 6.99955L7.94975 2.0498Z"></path></symbol><symbol viewBox="0 0 24 24" id="arrow-right-line"><path d="M16.1716 10.9999L10.8076 5.63589L12.2218 4.22168L20 11.9999L12.2218 19.778L10.8076 18.3638L16.1716 12.9999H4V10.9999H16.1716Z"></path></symbol><symbol viewBox="0 0 24 24" id="arrow-turn-back-line"><path d="M17.0005 18.1716L14.465 15.636L13.0507 17.0503L18.0005 22L22.9502 17.0503L21.536 15.636L19.0005 18.1716V11C19.0005 6.58172 15.4188 3 11.0005 3C6.58221 3 3.00049 6.58172 3.00049 11V20H5.00049V11C5.00049 7.68629 7.68678 5 11.0005 5C14.3142 5 17.0005 7.68629 17.0005 11V18.1716Z"></path></symbol></svg>

<svg xmlns="http://www.w3.org/2000/svg" xlink="http://www.w3.org/1999/xlink" width="0" height="0" style="display:none;"><symbol viewBox="0 0 24 24" id="eye-line"><path fill="none" d="M0 0h24v24H0z"/><path d="M12 3c5.392 0 9.878 3.88 10.819 9-.94 5.12-5.427 9-10.819 9-5.392 0-9.878-3.88-10.819-9C2.121 6.88 6.608 3 12 3zm0 16a9.005 9.005 0 0 0 8.777-7 9.005 9.005 0 0 0-17.554 0A9.005 9.005 0 0 0 12 19zm0-2.5a4.5 4.5 0 1 1 0-9 4.5 4.5 0 0 1 0 9zm0-2a2.5 2.5 0 1 0 0-5 2.5 2.5 0 0 0 0 5z"/></symbol><symbol viewBox="0 0 24 24" id="eye-off-line"><path fill="none" d="M0 0h24v24H0z"/><path d="M17.882 19.297A10.949 10.949 0 0 1 12 21c-5.392 0-9.878-3.88-10.819-9a10.982 10.982 0 0 1 3.34-6.066L1.392 2.808l1.415-1.415 19.799 19.8-1.415 1.414-3.31-3.31zM5.935 7.35A8.965 8.965 0 0 0 3.223 12a9.005 9.005 0 0 0 13.201 5.838l-2.028-2.028A4.5 4.5 0 0 1 8.19 9.604L5.935 7.35zm6.979 6.978l-3.242-3.242a2.5 2.5 0 0 0 3.241 3.241zm7.893 2.264l-1.431-1.43A8.935 8.935 0 0 0 20.777 12 9.005 9.005 0 0 0 9.552 5.338L7.974 3.76C9.221 3.27 10.58 3 12 3c5.392 0 9.878 3.88 10.819 9a10.947 10.947 0 0 1-2.012 4.592zm-9.084-9.084a4.5 4.5 0 0 1 4.769 4.769l-4.77-4.769z"/></symbol><symbol viewBox="0 0 24 24" id="lock-line"><path fill="none" d="M0 0h24v24H0z"/><path d="M19 10h1a1 1 0 0 1 1 1v10a1 1 0 0 1-1 1H4a1 1 0 0 1-1-1V11a1 1 0 0 1 1-1h1V9a7 7 0 1 1 14 0v1zM5 12v8h14v-8H5zm6 2h2v4h-2v-4zm6-4V9A5 5 0 0 0 7 9v1h10z"/></symbol><symbol viewBox="0 0 24 24" id="mail-line"><path fill="none" d="M0 0h24v24H0z"/><path d="M3 3h18a1 1 0 0 1 1 1v16a1 1 0 0 1-1 1H3a1 1 0 0 1-1-1V4a1 1 0 0 1 1-1zm17 4.238l-7.928 7.1L4 7.216V19h16V7.238zM4.511 5l7.55 6.662L19.502 5H4.511z"/></symbol><symbol viewBox="0 0 24 24" id="user-3-line"><path fill="none" d="M0 0h24v24H0z"/><path d="M20 22h-2v-2a3 3 0 0 0-3-3H9a3 3 0 0 0-3 3v2H4v-2a5 5 0 0 1 5-5h6a5 5 0 0 1 5 5v2zm-8-9a6 6 0 1 1 0-12 6 6 0 0 1 0 12zm0-2a4 4 0 1 0 0-8 4 4 0 0 0 0 8z"/></symbol><symbol viewBox="0 0 24 24" id="copyright-line"><path fill="none" d="M0 0h24v24H0z"/><path d="M12 2c5.52 0 10 4.48 10 10s-4.48 10-10 10S2 17.52 2 12 6.48 2 12 2zm0 2c-4.42 0-8 3.58-8 8s3.58 8 8 8 8-3.58 8-8-3.58-8-8-8zm0 3c1.82 0 3.413.973 4.288 2.428l-1.714 1.029A3 3 0 1 0 12 15a2.998 2.998 0 0 0 2.573-1.456l1.715 1.028A4.999 4.999 0 0 1 7 12c0-2.76 2.24-5 5-5z"/></symbol><symbol viewBox="0 0 24 24" id="logout-box-r-line"><path fill="none" d="M0 0h24v24H0z"/><path d="M5 22a1 1 0 0 1-1-1V3a1 1 0 0 1 1-1h14a1 1 0 0 1 1 1v3h-2V4H6v16h12v-2h2v3a1 1 0 0 1-1 1H5zm13-6v-3h-7v-2h7V8l5 4-5 4z"/></symbol><symbol viewBox="0 0 24 24" id="account-circle-fill"><path fill="none" d="M0 0h24v24H0z"/><path d="M12 2c5.52 0 10 4.48 10 10s-4.48 10-10 10S2 17.52 2 12 6.48 2 12 2zM6.023 15.416C7.491 17.606 9.695 19 12.16 19c2.464 0 4.669-1.393 6.136-3.584A8.968 8.968 0 0 0 12.16 13a8.968 8.968 0 0 0-6.137 2.416zM12 11a3 3 0 1 0 0-6 3 3 0 0 0 0 6z"/></symbol><symbol viewBox="0 0 24 24" id="shield-check-line"><path fill="none" d="M0 0H24V24H0z"/><path d="M12 1l8.217 1.826c.457.102.783.507.783.976v9.987c0 2.006-1.003 3.88-2.672 4.992L12 23l-6.328-4.219C4.002 17.668 3 15.795 3 13.79V3.802c0-.469.326-.874.783-.976L12 1zm0 2.049L5 4.604v9.185c0 1.337.668 2.586 1.781 3.328L12 20.597l5.219-3.48C18.332 16.375 19 15.127 19 13.79V4.604L12 3.05zm4.452 5.173l1.415 1.414L11.503 16 7.26 11.757l1.414-1.414 2.828 2.828 4.95-4.95z"/></symbol></svg>
